fs/ribbon_add_24_regular.svg

<svg viewBox="0 0 24 24" fill="none" xmlns="http://www.w3.org/2000/svg" height="1em" width="1em">
  <path d="M23 6.49961C23 3.46226 20.5376 1 17.5 1C14.4624 1 12 3.46226 12 6.49961C12 9.53696 14.4624 11.9992 17.5 11.9992C20.5376 11.9992 23 9.53696 23 6.49961ZM18.0006 6.99958L18.0011 9.50291C18.0011 9.77903 17.7773 10.0029 17.5011 10.0029C17.225 10.0029 17.0011 9.77903 17.0011 9.50291L17.0006 6.99958H14.4956C14.2197 6.99958 13.9961 6.77574 13.9961 6.49962C13.9961 6.22349 14.2197 5.99965 14.4956 5.99965H17.0005L17 3.49909C17 3.22297 17.2239 2.99912 17.5 2.99912C17.7761 2.99912 18 3.22297 18 3.49909L18.0005 5.99965H20.4966C20.7725 5.99965 20.9961 6.22349 20.9961 6.49962C20.9961 6.77574 20.7725 6.99958 20.4966 6.99958H18.0006ZM11 1.99993C11.5623 1.99993 12.1091 2.06622 12.633 2.19141C12.271 2.6 11.9597 3.0545 11.7088 3.54507C11.4768 3.51522 11.2402 3.49982 11 3.49982C7.96243 3.49982 5.5 5.96208 5.5 8.99943C5.5 12.0368 7.96243 14.499 11 14.499C12.6732 14.499 14.1719 13.7519 15.1806 12.5732C15.6844 12.7656 16.2182 12.8972 16.7731 12.959C16.5429 13.294 16.2842 13.608 16.0006 13.8974L15.9992 21.2487C15.9992 21.8206 15.3926 22.1691 14.907 21.9165L14.8175 21.862L10.9991 19.1744L7.18265 21.8619C6.71499 22.1912 6.08074 21.8958 6.00774 21.3533L6.0008 21.2487L5.99937 13.8974C4.76256 12.635 4 10.9063 4 8.99943C4 5.13371 7.13401 1.99993 11 1.99993ZM14.4992 19.8038L14.4994 15.0629C13.4699 15.6582 12.2748 15.9989 11 15.9989C9.72524 15.9989 8.53006 15.6582 7.50058 15.0629L7.5008 19.8033L10.5671 17.6441C10.7937 17.4845 11.0866 17.4645 11.3298 17.5841L11.4306 17.644L14.4992 19.8038Z" fill="#212121"/>
</svg>

<svg viewBox="0 0 24 24" fill="none" xmlns="http://www.w3.org/2000/svg" height="1em" width="1em">
  <path d="M23 6.5a5.5 5.5 0 1 0-11 0 5.5 5.5 0 0 0 11 0ZM18 7l.001 2.503a.5.5 0 1 1-1 0V7h-2.505a.5.5 0 0 1 0-1H17V3.5a.5.5 0 0 1 1 0V6h2.497a.5.5 0 0 1 0 1H18Zm-7-5c.562 0 1.11.066 1.633.191a6.516 6.516 0 0 0-.924 1.354 5.5 5.5 0 1 0 3.472 9.028 6.466 6.466 0 0 0 1.592.386c-.23.335-.489.649-.772.938l-.002 7.352a.75.75 0 0 1-1.092.668l-.09-.055L11 19.174l-3.816 2.688a.75.75 0 0 1-1.175-.509L6 21.25l-.002-7.352A7 7 0 0 1 11 2Zm3.5 17.804v-4.741a6.968 6.968 0 0 1-3.5.936c-1.275 0-2.47-.34-3.5-.936v4.74l3.067-2.159a.75.75 0 0 1 .763-.06l.1.06 3.07 2.16Z" fill="#212121"/>
</svg>
